svgs/sharp-regular/hammer-war.svg

<svg xmlns="http://www.w3.org/2000/svg" viewBox="0 0 384 512"><!--! Font Awesome Pro 6.6.0 by @fontawesome - https://fontawesome.com License - https://fontawesome.com/license (Commercial License) Copyright 2024 Fonticons, Inc. --><path d="M216 24l0-24L168 0l0 24 0 34.7L48 32 0 32 0 80 0 240l0 48 48 0 144-32 144 32 48 0 0-48 0-160 0-48-48 0L216 58.7 216 24zm0 270.1l-24-5.3-24 5.3L168 488l0 24 48 0 0-24 0-193.9zm-34.4-85L48 238.8 48 81.2l133.6 29.7c6.9 1.5 14 1.5 20.8 0L336 81.2l0 157.7L202.4 209.1c-6.9-1.5-14-1.5-20.8 0z"/></svg>

<svg xmlns="http://www.w3.org/2000/svg" viewBox="0 0 384 512"><!--! Font Awesome Pro 6.4.2 by @fontawesome - https://fontawesome.com License - https://fontawesome.com/license (Commercial License) Copyright 2023 Fonticons, Inc. --><path d="M216 24V0H168V24 58.7L48 32H0V80 240v48H48l144-32 144 32h48V240 80 32H336L216 58.7V24zm0 270.1l-24-5.3-24 5.3V488v24h48V488 294.1zm-34.4-85L48 238.8V81.2l133.6 29.7c6.9 1.5 14 1.5 20.8 0L336 81.2V238.8L202.4 209.1c-6.9-1.5-14-1.5-20.8 0z"/></svg>
